X:1
T:Title
%%score [ 1 2 3 4 ]
L:1/8
Q:1/4=120
M:2/2
K:C
V:1 treble nm="MusicXML Part"
V:2 treble nm="MusicXML Part"
V:3 treble-8 nm="MusicXML Part"
V:4 bass nm="MusicXML Part"
V:1
 G4 ^F2 G2 | A3 B c2 B2 | A2"^Veni creator" c4 B2 | c4 c4 | B2"^G.M. Asola (1532-1609)" A2 c4 | %5
w: 1.Ve- ni cre-|a- * * tor|spi- * ri-|tus, men-|tes tu- o-|
w: 3. Tu se- pti-|for- * * mis|mu- * ne-|re, di­gi-|tus pa- ter|
w: 5. Hos- tem re-|pel- * * las|lon- * gi-|us, in-|fun- de'a- mo|
w: 7. De- o Pa-|tri * * sit|glo- * ri-|a et|Fi- lio qui|
 d2 e3 d d2- | d2 ^c2 d4 |[M:2/2] c4 d2 d2 | e6 d2 | c2 c2 B4 | z2 c2 c2 B2 | c6 BA | B4 c2 A2- | %13
w: rum vi- * *|* si- ta,|im- ple su-|per- na|gra- ti- a|quae tu cre-|a- * *|* sti pec-|
w: nae dex- * *|* te- rae,|Tu ri- te|pro- mis-|sum Pa- tris|ser- mo- ne|di- * *|* tans gut-|
w: rem cor- * *|* di- bus,|Duc- to- re|sic te|prae- vi- o|Vi- te- mus|o- * *|* mne no-|
w: a mor- * *|* tu- is,|Sur- re- xit|ac pa-|ra- cli- to|in sae- cu-|lo- * *|* rum sae-|
 AG G4 ^F2 | G8 |] %15
w: * * * to-|ra.|
w: * * * tu-|ra.|
w: * * * xi-|um.|
w: * * * cu-|la.|
V:2
 D4 D2 D2 | =F3 G A2 G2 | E2 ^F2 G4 | G4 G4- | G2 E2 A4 | A6 _B2 | A3 A ^F4 |[M:2/2] A4 B2 B2 | %8
w: 1.Ve- ni cre-|a- * * tor|spi- * ri-|tus, men-|* tes tu-|o- rum|vi- si- ta,|im- ple su-|
w: 3. Tu se- pti-|for- * * mis|mu- * ne-|re, di­gi-|* tus pa-|ter nae|dex- te- rae,|Tu ri- te|
w: 5. Hos- tem re-|pel- * * las|lon- * gi-|us, in-|* fun- de'a-|mo rem|cor- di- bus,|Duc- to- re|
w: 7. De- o Pa-|tri * * sit|glo- * ri-|a et|* Fi- lio|qui a|mor- tu- is,|Sur- re- xit|
 c4 c2 G2- | G2 ^F2 G4 | A4 G2 G2 | E3 ^F G4- | G2 G2 E4 | FEDC D2 D2 | D8 |] %15
w: per- na gra-|* ti- a|quae tu cre-|a- * *|* sti pec-|* * * * * to-|ra.|
w: pro- mis- sum|* Pa- tris|ser- mo- ne|di- * *|* tans gut-|* * * * * tu-|ra.|
w: sic te prae-|* vi- o|Vi- te- mus|o- * *|* mne no-|* * * * * xi-|um.|
w: ac pa- ra-|* cli- to|in sae- cu-|lo- * *|* rum sae-|* * * * * cu-|la.|
V:3
 B4 A2 B2 | c4 A2 B2 | c4 d3 d | c4 e4 | d2 c3 d e2 | f2 e2 f2 g2 | e3 e d4 |[M:2/2] e4 g2 g2 | %8
w: 1.Ve- ni cre-|a- * tor|spi- * ri-|tus, men-|tes tu * *|o- rum vi- *|* si- ta,|im- ple su-|
w: 3. Tu se- pti-|for- * mis|mu- * ne-|re, di­gi-|tus pa- * *|ter nae dex- *|* te- rae,|Tu ri- te|
w: 5. Hos- tem re-|pel- * las|lon- * gi-|us, in-|fun- de'a- * *|mo rem cor- *|* di- bus,|Duc- to- re|
w: 7. De- o Pa-|tri * sit|glo- * ri-|a et|Fi- lio * *|qui a mor- *|* tu- is,|Sur- re- xit|
 g6 d2 | e2 c2 d4 | f4 d2 d2 | c4 d3 c | d2 e3 dcB | c2 B2 A2 A2 | B8 |] %15
w: per- na|gra- ti- a|quae tu cre-|a- sti *|* pec- * * *|* * * to-|ra.|
w: pro- mis-|sum Pa- tris|ser- mo- ne|di- tans *|* gut- * * *|* * * tu-|ra.|
w: sic te|prae- vi- o|Vi- te- mus|o- mne *|* no- * * *|* * * xi-|um.|
w: ac pa-|ra- cli- to|in sae- cu-|lo- rum *|* sae- * * *|* * * cu-|la.|
V:4
 G,4 D,2 G,2 | F,6 G,2 | A,4 G,4 | C,4 C4 | G,2 A,3 B,CA, | D2 ^C2 D2 G,2 | A,4 D,4 | %7
w: 1.Ve- ni cre-|a- tor|spi- ri-|tus, men-|tes tu- * * *|o- rum vi- si-|ta *|
w: 3. Tu se- pti-|for- mis|mu- ne-|re, di­gi-|tus pa- * * *|ter nae dex- te-|rae, *|
w: 5. Hos- tem re-|pel- las|lon- gi-|us, in-|fun- de'a- * * *|mo rem cor- di-|bus, *|
w: 7. De- o Pa-|tri sit|glo- ri-|a et|Fi- lio * * *|qui a mor- tu-|is, *|
[M:2/2] A,4 G,2 G,2 | C6 B,2 | A,2 A,2 G,4 | F,4 G,4 | A,4 G,4 | G,4 A,3 G, | F,2 G,2 D,2 D,2 | %14
w: im- ple su-|per- na|gra- ti- a|quae tu|* cre-|a- * *|* sti pec- to-|
w: Tu ri- te|pro- mis-|sum Pa- tris|ser- mo-|* ne|di- * *|* tans gut- tu-|
w: Duc- to- re|sic te|prae- vi- o|Vi- te-|* mus|o- * *|* mne no- xi-|
w: Sur- re- xit|ac pa-|ra- cli- to|in sae-|* cu-|lo- * *|* rum sae- cu-|
 G,8 |] %15
w: ra.|
w: ra.|
w: um.|
w: la.|

